X:1
T:Psalm 146
T:V 1
L:1/4
M:14/4
I:linebreak $
K:C
V:1 treble nm="Pipe Organ" snm="Org."
V:1
 B2 c2 B G A G F2 E3 z |$[M:12/4] E2 G2 F E E D E3 z |$[M:14/4] G2 E2 G A B G c2 B3 z |$ %3
w: Prys die HEER met bly- e gal- me,|o my siel, daar’s ry- ke stof!|'kSal, so- lank ek leef, my psal- me|
[M:12/4] B2 c2 B A A G A3 z |$ A2 B2 G E G F E3 z |$ E2 G2 E A A G A4 |] %6
w: vro- lik toe- wy aan sy lof|en Hom, wat sy guns my bied,|al- tyd groot maak in my lied.|

